X:1
T:Title
L:1/8
Q:1/4=135
M:6/4
K:F
V:1 treble nm="Church Organ, Staff"
V:1
 F2 A4 A2 B4 | A2 F4 G2 A4 | F2 A4 d2 c4 | F2 F4 G2 A4 | A2 B4 A2 G2 A2 | B2 A4 G2 F4 | %6
w: By~E.~J.~Hopkins,~Mus.~D * * *||||||
 A2 D4 E2 F4 | A2 A4 =B2 ^c4- | c2 d4- d2 =c4- | c2 B4- B2 A2 G2 | F2 G4- G6- | G2 F4- F2 F4 |] %12
w: ||||||

